X:1
T:Sonata for Two Violins in C Major
T:Sonata for Two Violins in C Major
T:Op. 3, No. 3
T:Jean-Marie Leclair
C:Jean-Marie Leclair
%%score [ ( 1 2 ) ( 3 4 ) ]
L:1/8
Q:1/4=60
M:3/4
K:C
V:1 treble nm="Violin I"
V:2 treble 
V:3 treble nm="Violin II"
V:4 treble 
V:1
"^Adagio" g2 g2 g2 | a6 | g6 | c2 c2 c2 | c6 | c6 |:[Q:1/4=120]"^Vivace" c C2 D/E/ F/G/A/B/ | %7
 cc/B/ AF/E/ DG | E C2 D/E/ F/G/A/B/ | cc/B/ AF/E/ DG | E2 C2 z2 | c/g/d/g/ e/g/d/g/ e/g/c/g/ | %12
 B/g/c/g/ d/g/c/g/ d/g/B/g/ | c/g/d/g/ e/g/d/g/ e/g/c/g/ | B/G/A/B/ c/d/e/^f/ g2 | E2 c2 C2 | %16
 G2 B2 G2 | E2 c2 C2 | G2 G,2 z z/ g/ | gfed c2- | cf/g/ af !trill(!Tc2- | !trill)!cdefg_B | %22
 A/G/F/E/ F/E/F/G/ A/=B/c/A/ |"^arpeggio battuto" [da]2 [da]2 [da]2 | [db]2 [db]2 [db]2 | %25
 [da]2 [da]2 [da]2 | [db]3 x2 c' | c'2 b2 b2 | b2 a2 a2 | a2 g2 g2 | g2 f2 f2 | [Bf]2 z B cg | %32
 fe Td4 | c C2 D/E/ F/G/A/B/ | cc'/b/ af/e/ dg | e2 a2 g2 | ^f3 D B,G | CB,CDEC | DE^FDdc | %39
 B(dA)(cG)(B | ^F)(AG)(BA)(c | B)(GA)(^FG)G, | D2 z a bc' | d'/d/D/d/ c'/d/D/d/ b/d/D/d/ | %44
 a/d/D/d/ b/d/D/d/ c'/d/D/d/ | d'/d/D/d/ c'/d/D/d/ b/d/D/d/ |{/b} Ta3 a b2- | b>c' Ta3 g | %48
 g2 z2 z/4 (G,/4A,/4B,/4C/4D/4E/4^F/4) | G2 z2 z/4 (D/4E/4^F/4G/4A/4B/4c/4) | %50
 d2 z2 z/4 (G/4A/4B/4c/4d/4e/4^f/4) | g2 z2 z/4 (d/4e/4^f/4g/4a/4b/4c'/4) | d'2 _B>c B z | %53
 z2 c>_B c z | z2 _B>c B z | z2 A>_B A z | z A=BA B2- | B>c TA3 G | G2 G,4 :: %59
 G G,2 A,/B,/ C/D/E/^F/ | GG/^F/ EC/B,/ A,D | B, G,2 A,/B,/ C/D/E/^F/ | GG/^F/ EC/B,/ A,D | %63
 B,2 G,2 z2 | G/d/A/d/ B/d/A/d/ B/d/G/d/ | ^F/d/G/d/ A/d/G/d/ A/d/F/d/ | %66
 G/d/A/d/ B/d/A/d/ B/d/G/d/ | ^F/D/E/F/ G/A/B/c/ d/c/d/B/ | c2 A2 A,2 | E2 ^G2 E2 | C2 A2 A,2 | %71
 E4 e2 | f/g/a/f/ d/f/d/c/ B/d/g/f/ | e/f/g/e/ c/e/c/B/ A/c/f/e/ | d/e/f/d/ B/d/B/A/ ^G/B/e/d/ | %75
 c/A/B/c/ d/B/c/d/ e/c/d/e/ | f/d/e/^f/ ^g/e/f/g/ a2- | a>b T^g4 | a A,2 B,/^C/ D/E/F/G/ | %79
 A A,2 B,/^C/ D/E/F/G/ | A A,2 A,/B,/ ^C/A,/B,/C/ | D2 z A _BG | ^FA/_B/ cABG | ^FA/_B/ cAdc | %84
 _B G,2 A,/=B,/ C/D/E/F/ | G G,2 A,/B,/ C/D/E/F/ | G G,2 G,/A,/ B,/G,/A,/B,/ | C2 z g af | %88
 eg/a/ _bgaf | eg/a/ _bgc'b | a2 T_b2 c'2- | c'2 _bagf | ecCDC_B, | %93
"^arpeggio battuto" [Fc]2 [Fc]2 [Fc]2 | [Fc]2 [Fc]2 [Fc]2 | [Fc]2 [Fc]2 [Fc]2 | [Fd]2 z2 z2 | %97
 g G2 A/=B/ c/d/e/f/ | g G2 A/B/ c/d/e/f/ | gb/c'/ d'fd'f | x2 x2 c'2 | c'2 _b2 b2 | _b2 a2 a2 | %103
 a2 g2 g2 | g2 f2 f2 | f2 x4 | f F2 G/A/ _B/c/d/e/ | ff/e/ d_B/A/ Gc | A F2 G/A/ _B/c/d/e/ | %109
 ff/e/ decd | B/c/d/B/ G2 z z/ g/ | gfed c2- | cf/g/ af c2- | cdefg_B | %114
 A/G/F/E/ F/E/F/G/ A/=B/c/A/ |"^arpeggio battuto" [da]2 [da]2 [da]2 | [db]2 [db]2 [db]2 | %117
 [da]2 [da]2 [da]2 | [db]3 x2 c' | c'2 b2 b2 | b2 a2 a2 | a2 g2 g2 | g2 f2 f2 | [Bf]3 B cg | %124
 fe Td3 c | c4 z2 | e(gd)(fc)(e | B)(dc)(ed)(f | e)(cd)(Bc)C | G2 G,2 z/ d/e/f/ | %130
 g/G/G,/G/ f/G/G,/G/ e/G/G,/G/ | d/G/G,/G/ e/G/G,/G/ f/G/G,/G/ | g/G/G,/G/ f/G/G,/G/ e/G/G,/G/ | %133
 d2 d>e d z | z2 e>f e z | z2 f>g f z | z2 e>f e2 | d2 E>F E z | z2 F>E F z | z2 E>D E z | %140
 z2 D>E D z | z DED E2- | E>F TD3 C | C6 :| %144
[M:4/4][Q:1/4=40]"^Adagio" e3 c/A/ f(d/e/) (f/^g/)(g/a/) | %145
 ae c'b/a/ .b/(b/^c'/d'/) (e/4^f/4^g/4a/4 (3b/4=c'/4d'/4) (3(c'/4d'/4b/4) | %146
 c'(a/e/) (c/A/)(E/C/) A,4- | A,8- | A,8 | e^c/B/ Ag TgfDC | B,G,/A,/ B,G, C2 z g/e/ | %151
 (3(Tc/d/B/) c F2 G2 (g/e/Te3/4f/8g/8) | %152
 (f/d/Td3/4e/8f/8) (g/e/Te3/4f/8g/8) (f/8e/8d3/4)(e/8d/8c3/4) (d/8c/8B3/4)(c/8B/8A3/4) | %153
 B/g/f/e/ Td>c c2 e2- | e(^f/e/) (^d/e/)(^c/d/) eBB,G, | CEDC B,G, z b | %156
 c'>b (a/g/)(^f/e/) Te^d z G, | A,B,CA, B,B/A/ Gg | ^f2 Tf>e e(e/=f/) (g/e/)(f/d/) | %159
 ^cA,B,^C D(d/e/) (f/e/)(d/=c/) | BG,A,B, C(c/d/) (e/d/)(c/B/) | cA,DC B,(B/c/) (d/c/)(B/A/) | %162
 ^GE^FG AECe | %163
 (f/8e/8d3/4)(e/8d/8c3/4) (d/8c/8B3/4)(c/8B/8A3/4) (f/8e/8d3/4)(e/8d/8c3/4) (d/8c/8B3/4)(c/8B/8A3/4) | %164
 (f/e/)(d/c/) (_B/4c/4d/4e/4[xf]/)A/"^♮" TA^G C2 | DD/E/ FD EE A2- | A^G/E/ c2- cB/E/ e2- | %167
 ed/^c/ d2- d=c/B/ c2- | cd/e/ TB2 (A/e/)(f/^g/) (a/g/)a | %169
 z/ e/(a/b/) (c'/b/)c' z/ e/(c'/d'/) (e'/d'/)e' | z/ e'/f'/e'/ Td'>e' e'4 |] %171
[M:2/4][Q:1/4=110]"^Allegro" e/f/ gE/G/ | Fd/e/ fD/F/ | Ec/d/ eC/E/ | D(f/e/) (d/e/)(c/d/) | %175
 (B/A/)(G/F/) (E/d/)(c/B/) | (A/G/)(F/E/) (D/c/)(B/A/) | (G/F/)(E/D/) (C/B/)(A/G/) | %178
 (F/E/)(D/C/) GG, | C :| (e/f/) (g/e/)(a/f/) | (g/f/)(e/f/) (g/e/)(a/f/) | %182
 (g/f/)(e/g/) (a/g/)(f/a/) | (g/f/)(e/g/) (f/e/)(d/f/) | (e/c/)(E/F/) (G/E/)(A/F/) | %185
 (G/F/)(E/F/) (G/E/)(A/F/) | (G/F/)(E/F/) (G/A/)(B/G/) | (A/B/)(c/B/) (A/B/)(G/A/) | %188
 (^F/D/)B/c/ dB,/D/ | Cc/d/ eC/E/ | Dd/e/ ^fD/^F/ | Ee/^f/ gE/G/ | ^F^f/g/ aF/A/ | %193
 G(g/^f/) (e/d/)(c/B/) | (e/d/)(c/B/){B} A(G/^F/) | Ge/=f/ gE/G/ | Fd/e/ fD/F/ | Ec/d/ eC/E/ | %198
 D(f/e/) (d/e/)(c/d/) | (B/A/)(G/F/) (E/d/)(c/B/) | (A/G/)(F/E/) (D/c/)(B/A/) | %201
 (G/F/)(E/D/) (C/B/)(A/G/) | (F/E/)(D/C/) GG, | C(g/c/) (a/c/)(g/c/) | (a/c/)(g/c/) (a/c/)(b/c/) | %205
 (c'/c/)(c'/c/) (_b/c/)(a/c/) | (g/c/)(_b/c/) (a/c/)(g/c/) | a(a/d/) (=b/d/)(a/d/) | %208
 (b/d/)(a/d/) (b/d/)(c'/d/) | (d'/d/)(d'/d/) (c'/d/)(b/d/) | (a/d/)(c'/d/) (b/d/)(a/d/) | %211
 b(b/e/) (c'/e/)(b/e/) | (c'/e/)(b/e/) (c'/e/)(d'/e/) | (e'/e/)(e'/e/) (d'/e/)(c'/e/) | %214
 (b/e/)(d'/e/) (c'/e/)(b/e/) | c'(e'/d'/) (c'/b/)(a/g/) | (f/e'/)(d'/c'/) (b/a/)(g/f/) | %217
 (e/d'/)(c'/b/) (a/g/)(f/e/) | (d/c'/)(b/a/) (^g/f/)(e/d/) | (c/b/)(a/=g/) (f/e/)(d/c/) | %220
 Bc/d/ TB>A | A2 z e/d/ | (^c/B/)(A/G/) (^F/d/)(E/c/) | D(A/D/) (B/D/)(=c/D/) | %224
 (d/D/)(A/D/) (d/D/)(c/D/) | B2 z d/c/ | (B/A/)(G/F/) (E/c/)(D/B/) | C(g/c/) (a/c/)(b/c/) | %228
 (c'/c/)(g/c/) (c'/c/)(_b/c/) | (a/c/)(c'/c/) (g/c/)(_b/c/) |!p! (a/c/)(c'/c/) (g/c/)(_b/c/) | %231
 (a/c/)(c'/c/) (g/c/)(_b/c/) |!f! a=b/c'/ b(Tc'{bc')} | d'e/f/ gE/G/ | Fd/e/ fD/F/ | Ec/d/ eC/E/ | %236
 D(f/e/) (d/e/)(c/d/) | (B/A/)(G/F/) (E/d/)(c/B/) | (A/G/)(F/E/) (D/c/)(B/A/) | %239
 (G/F/)(E/D/) (C/B/)(A/G/) | (F/E/)(D/C/) GG, ||[K:Bb] C |: c/d/ eC/E/ | Dd/e/ fD/F/ | %244
 Ee/f/ gE/G/ | F(_a/g/) (f/e/)(d/c/) | =B(e/d/) (c/_B/)(_A/G/) | F(f/e/) (d/c/)(=B/=A/) | %248
 G(g/f/) (e/d/)(c/_B/) | (_A/F/)(E/F/) GG, | C :| e/f/ ge/B/ | fd/B/ _af/B/ | %253
 g(b/_a/) (g/f/)(e/d/) | c(_a/g/) (f/e/)(d/c/) | db/g/ B_a/f/ | Bg/e/ Bf/d/ | BB,B,B, | B,B,B,B, | %259
 B,(B/E/) (c/E/)(B/E/) | (c/E/)(B/E/) (c/E/)(d/E/) | (e/E/)(B/E/) (c/E/)(B/E/) | %262
 (c/E/)(B/E/) (c/E/)(d/E/) | (e/d/)(c/B/) (_A/G/)(F/A/) | (G/B/)(e/G/) (G/F/)(e/d/) | ec/d/ eC/E/ | %266
 Dd/e/ fD/F/ | Ee/f/ gE/G/ | F(_a/g/) (f/e/)(d/c/) | =B(e/d/) (c/_B/)(_A/G/) | %270
 F(f/e/) (d/c/)(=B/=A/) | G(g/f/) (e/d/)(c/_B/) | (_A/F/)(E/F/) GG, | C(g/_a/) (b/g/)(f/g/) | %274
 (=e/c/)(B/c/) b(_a/g/) | (_a/f/)(=e/f/) .b/(b/a/g/) | (_a/f/)(b/a/) (g/a/)(f/g/) | %277
 (=e/c/)(d/e/) f(c/_e/) | (_d/B/)(c/d/) e(B/d/) | (c/_A/)(B/c/) _d(A/c/) | (B/G/)(_A/B/) c(G/B/) | %281
 (_A/F/)(_d/c/) (B/A/)(G/F/) | =EF/G/"^♭" TG>F | Ff/g/ _aa- | a _a2 b/f/ | g(g/f/) (e/d/)(c/B/) | %286
 (_A/F/)(G/E/) (F/D/)(E/C/) | Dd/e/ ff- | f f2 g/d/ | (e/g/)(e/g/) (d/g/)(e/g/) | %290
 (d/g/)(e/g/) (d/g/)(c/g/) | (=B/g/)(c/g/) (d/g/)(e/g/) | (d/g/)(e/g/) (d/g/)(c/g/) | %293
 =Bc/d/ eC/E/ | Dd/e/ fD/F/ | Ee/f/ gE/G/ | F(_a/g/) (f/e/)(d/c/) | =B(e/d/) (c/_B/)(_A/G/) | %298
 F(f/e/) (d/c/)(=B/=A/) | G(g/f/) (e/d/)(c/_B/) | (_A/F/)(E/F/) GG, ||[K:C] Ce/f/ gE/G/ | %302
 Fd/e/ fD/F/ | Ec/d/ eC/E/ | D(f/e/) (d/e/)(c/d/) | (B/A/)(G/F/) (E/d/)(c/B/) | %306
 (A/G/)(F/E/) (D/c/)(B/A/) | (G/F/)(E/D/) (C/B/)(A/G/) | (F/E/)(D/C/) GG, | C4 |] %310
V:2
 c2 c2 c2 | c6 | c6 | G2 G2 G2 | A6 | G6 |: x6 | x6 | x6 | x6 | x6 | x6 | x6 | x6 | x6 | x6 | x6 | %17
 x6 | x6 | x6 | x6 | x6 | x6 | ^F2 F2 F2 | G2 G2 G2 | ^F2 F2 F2 | G3 g c'e | d2 d2 d2 | c2 c2 c2 | %29
 B2 B2 B2 | A2 A2 A2 | [G,D]2 x x x2 | x6 | x6 | x6 | x6 | [DA]3 x x2 | x6 | x6 | x6 | x6 | x6 | %42
 x6 | x6 | x6 | x6 | x6 | x6 | x6 | x6 | x6 | x6 | x2 G>A G x | x2 A>G A x | x2 G>A G x | %55
 x2 ^F>G F x | x ^FGF G2- | G>A ^F3 x | x6 :: x6 | x6 | x6 | x6 | x6 | x6 | x6 | x6 | x6 | x6 | %69
 x6 | x6 | x6 | x6 | x6 | x6 | x6 | x6 | x6 | x6 | x6 | x6 | x6 | x6 | x6 | x6 | x6 | x6 | x6 | %88
 x6 | x6 | x6 | x6 | x6 | A,2 A,2 A,2 | A,2 A,2 A,2 | A,2 A,2 A,2 | _B,2 x2 x2 | x6 | x6 | x6 | %100
 e2 c'2 _e2 | d2 d2 d2 | c2 c2 c2 | _B2 B2 B2 | A2 A2 [Ac]2 | [G_B]2 Te4 | x6 | x6 | x6 | x6 | x6 | %111
 x6 | x6 | x6 | x6 | ^F2 F2 F2 | G2 G2 G2 | ^F2 F2 F2 | G3 g c'e | d2 d2 d2 | c2 c2 c2 | B2 B2 B2 | %122
 A2 A2 A2 | [G,D]3 x x2 | x6 | x6 | x6 | x6 | x6 | x6 | x6 | x6 | x6 | x2 B>c B x | x2 c>d c x | %135
 x2 d>e d x | x2 c>d c2 | G2 C>D C x | x2 D>C D x | x2 C>B, C x | x2 B,>C B, x | x B,CB, C2- | %142
 C2 G,3 x | x6 :|[M:4/4] x8 | x8 | x8 | x8 | x8 | x8 | x8 | x8 | x8 | x8 | x8 | x8 | x8 | x8 | x8 | %159
 x8 | x8 | x8 | x8 | x8 | x8 | x8 | x4 x2 E2- | E4 E4- | E2 E2 A/ x/ x x2 | x8 | x4 ^g4 |] %171
[M:2/4] x3 | x4 | x4 | x4 | x4 | x4 | x4 | x4 | x :| x3 | x4 | x4 | x4 | x4 | x4 | x4 | x4 | x4 | %189
 x4 | x4 | x4 | x4 | x4 | x4 | x4 | x4 | x4 | x4 | x4 | x4 | x4 | x4 | x4 | x4 | x4 | x4 | x4 | %208
 x4 | x4 | x4 | x4 | x4 | x4 | x4 | x4 | x4 | x4 | x4 | x4 | x4 | x4 | x4 | x4 | x4 | x4 | x4 | %227
 x4 | x4 | x4 | x4 | x4 | x4 | x4 | x4 | x4 | x4 | x4 | x4 | x4 | x4 ||[K:Bb] x |: x3 | x4 | x4 | %245
 x4 | x4 | x4 | x4 | x4 | x :| x3 | x4 | x4 | x4 | x4 | x4 | x4 | x4 | x4 | x4 | x4 | x4 | x4 | %264
 x4 | x4 | x4 | x4 | x4 | x4 | x4 | x4 | x4 | x4 | x4 | x4 | x4 | x4 | x4 | x4 | x4 | x4 | x4 | %283
 x4 | x4 | x4 | x4 | x4 | x4 | x4 | x4 | x4 | x4 | x4 | x4 | x4 | x4 | x4 | x4 | x4 | x4 || %301
[K:C] x4 | x4 | x4 | x4 | x4 | x4 | x4 | x4 | x4 |] %310
V:3
 e2 e2 e2 | f6 | e6 | E2 E2 E2 | F6 | E6 |: z6 | c C2 D/E/ F/G/A/B/ | cc/B/ AF/E/ DG | %9
 E C2 D/E/ F/G/A/B/ | cGEG C2 | C2 C2 C2 | G2 B2 G2 | E2 c2 C2 | G2 G,2 z2 | %15
 c/g/d/g/ e/g/d/g/ e/g/c/g/ | B/g/c/g/ d/g/c/g/ d/g/B/g/ | c/g/d/g/ e/g/d/g/ e/g/c/g/ | %18
 B/G/A/B/ c/d/e/^f/ g2 |"^arpeggio battuto" [cg]2 [cg]2 [cg]2 | [ca]2 [ca]2 [ca]2 | %21
 [cg]2 [cg]2 [cg]2 | [ca]2 z2 z a | ag^fe d2- | dg/a/ bg !trill(!Td2- | !trill)!de^fgac | BAGFEC | %27
 G G2 ^G/^F/ G/A/B/G/ | A A2 A/^G/ A/B/c/A/ | E E2 E/D/ E/F/G/E/ | F F2 F/E/ F/G/A/F/ | GBFdEc | %32
 Fc G2 G,2 | Cc'/b/ af/e/ dg | e c2 d/e/ f/g/a/b/ | c'2 c'2 c'2 | c'3 a d'2- | d'2 c'bag | %38
 ^f2 d2 z2 | d'/d/D/d/ c'/d/D/d/ b/d/D/d/ | a/d/D/d/ b/d/D/d/ c'/d/D/d/ | %41
 d'/d/D/d/ c'/d/D/d/ b/d/D/d/ | a/d'/^c'/b/ a/g/^f/e/ d=c | B(dA)(cG)(B | ^F)(AG)(BA)(c | %45
 B)(GA)(^FG)G, | DEDCB,G, | C2 D4 | G,2 B>c B z | z2 c>B c z | z2 B>c B z | z2 A>B A z | %52
 z2 z2 z/4 (G,/4A,/4_B,/4C/4D/4E/4^F/4) | G2 z2 z/4 (D/4E/4^F/4G/4A/4_B/4c/4) | %54
 d2 z2 z/4 (G/4A/4_B/4c/4d/4e/4^f/4) | g2 z2 z/4 (d/4e/4^f/4g/4a/4_b/4c'/4) | d'2 z D G2 | %57
 C2 D2 T^F2 | GD B,4 :: z6 | G G,2 A,/B,/ C/D/E/^F/ | GG/^F/ EC/B,/ A,D | B, G,2 A,/B,/ C/D/E/^F/ | %63
 GDB,D G,2 | G,2 G,2 G,2 | D2 ^F2 D2 | B,2 G2 G,2 | D2 z2 z2 | A/e/B/e/ c/e/B/e/ c/e/A/e/ | %69
 ^G/B/^F/B/ E/B/F/B/ G/B/E/B/ | A/e/B/e/ c/e/B/e/ c/e/A/e/ | ^GB E2 ^c2 | d D2 E/F/ G/A/B/G/ | %73
 c C2 D/E/ F/G/A/F/ | B B,2 C/D/ E/^F/^G/E/ | A2 z2 z/ A/B/c/ | d/B/c/d/ e/c/d/e/ f/e/d/c/ | %77
 B2 TB3 A | A2 z e fd | ^ce/f/ gefd | ^ce/f/ geag | f D2 E/^F/ G/A/_B/c/ | d D2 E/^F/ G/A/_B/c/ | %83
 d D2 D/E/ ^F/D/E/F/ | G2 z d ec | Bd/e/ fdec | Bd/e/ fdgf | e C2 D/E/ F/G/A/_B/ | %88
 c C2 D/E/ F/G/A/_B/ | c C2 C/D/ E/C/D/E/ | F4 _E2 | D2 =E2 F2 | C2 z2 z2 | f F2 G/A/ _B/c/d/e/ | %94
 f F2 G/A/ _B/c/d/e/ | fa/_b/ c'_ec'e | d_B,/C/ D=EFD |"^arpeggio battuto" [Gd]2 [Gd]2 [Gd]2 | %98
 [Gd]2 [Gd]2 [Gd]2 | [Gd]2 [Gd]2 [Gd]2 | [Ge]2 z2 A2 | _B _B,2 B,/A,/ B,/C/D/E/ | %102
 F F2 F/E/ F/G/A/F/ | G G2 G/F/ E/C/D/E/ | F F2 F/E/ F/G/A/F/ | C2 c2 C2 | Ff/e/ d_B/A/ Gc | %107
 A F2 G/A/ _B/c/d/e/ | ff/e/ d_B/A/ Gc | Ac=BGcC | GG,GAGF |"^arpeggio battuto" [cg]2 [cg]2 [cg]2 | %112
 [ca]2 [ca]2 [ca]2 | [cg]2 [cg]2 [cg]2 | [ca]2 z2 z a | ag^fe d2- | dg/a/ bg !trill(!Td2- | %117
 !trill)!de^fgac | BAGFEC | G G2 ^G/^F/ G/A/B/G/ | A A2 A/^G/ A/B/c/A/ | E E2 E/D/ E/F/G/E/ | %122
 F F2 F/E/ F/G/A/F/ | GBFd E2 | F2 G2 G,2 | C3 d ef | g/G/G,/G/ f/G/G,/G/ e/G/G,/G/ | %127
 d/G/G,/G/ e/G/G,/G/ f/G/G,/G/ | g/G/G,/G/ f/G/G,/G/ e/G/G,/G/ | d/G/A/B/ c/d/e/^f/ g2 | %130
 e(gd)(fc)(e | B)(dc)(ed)(f | e)(cd)(Bc)C | G2 z2 d>e | d2 z2 e>f | e2 z2 f>g | f2 g3 c | %137
 B2 G2 E>F | E2 z2 F>E | F2 z2 E>D | E2 z2 D>E | D2 G2 G2 | A>d TB3 c | c6 :|[M:4/4] A,8- | A,8- | %146
 A,4 e3 c/A/ | f(d/e/) (f/^g/)(g/a/) ae c'b/a/ | %148
 .b/(b/^c'/d'/) (e/4^f/4^g/4a/4 (3b/4=c'/4d'/4) (3(c'/4d'/4b/4) c'(a/e/) (c/A/)(E/C/) | %149
 A,B,^CA, D2 z2 | dB/A/ Gf Tfe E2 | F2 z a/f/ (3(Td/e/^c/) d (e/=c/Tc3/4d/8e/8) | %152
 (d/B/TB3/4c/8d/8) (e/c/Tc3/4d/8e/8) (d/8c/8B3/4)(c/8B/8A3/4) (B/8A/8G3/4)(A/8G/8^F3/4) | %153
 G/e/d/c/ TB>c c3 G | AcBA GE g2- | g(a/g/) (^f/g/)(e/f/) gB/A/ GG, | A,B,CA, B,2 z b | %157
 c'>b (a/g/)(^f/e/) ^d2 e2- | e2 T^d2 e2 z2 | z (a/g/) (a/f/)(g/e/) (f/g/)(f/e/) (d/c/)(B/A/) | %160
 G(g/f/) (g/e/)(f/d/) (e/f/)(e/d/) (c/B/)(A/G/) | %161
 F(f/e/) (f/d/)(e/c/) (d/e/)(d/c/) (B/A/)(^G/^F/) | E(e/d/) (e/c/)(d/B/) cAA,A | %163
 (d/8c/8B3/4)(c/8B/8A3/4) (f/8e/8d3/4)(e/8d/8c3/4) (d/8c/8B3/4)(c/8B/8A3/4) (f/8e/8d3/4)(e/8d/8c3/4) | %164
 DD/E/ FD E2 z e | (f/e/)(d/c/) (_B/4c/4d/4e/4[xf]/)A/"^♮" TA^G z E | B3 A/E/ d3 c/A/ | %167
 f3 e/d/ e3 a | AB/c/ T^G>A A2 z/ e/(^f/^g/) | (a/^g/)a z/ e/(a/b/) (c'/b/)c' z/ e/(c'/d'/) | %170
 e'E (AB) B4 |][M:2/4] z z (c/B/) | (A/G/)(F/E/) (D/c/)(B/A/) | (G/F/)(E/D/) (C/B/)(A/G/) | %174
 (F/E/)(D/C/) B,C | G,e/f/ gE/G/ | Fd/e/ fD/F/ | Ec/d/ eC/E/ | D(f/e/){e} d(c/B/) | c :| %180
 (c/d/) (e/c/)(f/d/) | (e/d/)(c/d/) (e/c/)(f/d/) | (e/d/)(c/E/) (F/A/)(d/F/) | %183
 (E/G/)(c/E/) (D/F/)(B/D/) | C(C/D/) (E/C/)(F/D/) | (E/D/)(C/D/) (E/C/)(F/D/) | %186
 (E/D/)(C/D/) (E/^F/)(G/E/) | (^F/G/)(A/G/) (F/D/)(G/G,/) | D2 z (G/^F/) | %189
 (E/D/)(C/B,/) (C/B/)(A/G/) | (^F/E/)(D/^C/) (D/=c/)(B/A/) | (G/^F/)(E/D/) (E/d/)(c/B/) | %192
 (A/G/)(^F/E/) (F/e/)(d/c/) | (B/d/)(e/^f/) (g/f/)(e/d/) | (c/B/)(A/G/) dD | G2 z (c/B/) | %196
 (A/G/)(F/E/) (D/c/)(B/A/) | (G/F/)(E/D/) (C/B/)(A/G/) | (F/E/)(D/C/) B,C | G,e/f/ gE/G/ | %200
 Fd/e/ fD/F/ | Ec/d/ eC/E/ | Df/e/{e} d(c/B/) | c(e/c/) (f/c/)(e/c/) | (f/c/)(e/c/) (f/c/)(g/c/) | %205
 aAGF | EGFE | F(^f/d/) (g/d/)(f/d/) | (g/d/)(^f/d/) (g/d/)(a/d/) | bBAG | ^FAGF | %211
 G(^g/e/) (a/e/)(g/e/) | (a/e/)(^g/e/) (a/e/)(b/e/) | c'cBA | ^GBAG | A2 z c/A/ | dF/D/ GB/G/ | %217
 cE/C/ FA/F/ | BD/B,/ E^G/E/ | AC/A,/ (D/E/)(F/E/) | EA/D/ E2 | A,(e/A/) (^f/A/)(g/A/) | %222
 (a/A/)(e/A/) (a/A/)(g/A/) | ^f2 z (A/G/) | (^F/E/)(D/C/) (B,/G/)(A,/F/) | G,(d/G/) (e/G/)(=f/G/) | %226
 (g/G/)(d/G/) (g/G/)(f/G/) | e2 z (g/f/) | (e/d/)(c/_B/) (A/f/)(G/e/) | (f/g/)(a/f/) (e/f/)(g/e/) | %230
!p! (f/g/)(a/f/) (e/f/)(g/e/) | (f/g/)(a/f/) (e/f/)(g/e/) |!f! (f/e/)(d/c/) gc | G2 z (c/B/) | %234
 (A/G/)(F/E/) (D/c/)(B/A/) | (G/F/)(E/D/) (C/B/)(A/G/) | (F/E/)(D/C/) B,C | G,e/f/ gE/G/ | %238
 Fd/e/ fD/F/ | Ec/d/ eC/E/ | Df/e/{e} dc/B/ ||[K:Bb] c |: (e/d/) (c/B/)(_A/G/) | %243
 F(f/e/) (d/c/)(=B/=A/) | G(g/f/) (e/d/)(c/_B/) | _AF/G/ AF | Gc/d/ eC/E/ | Dd/e/ fD/F/ | %248
 Ee/f/ gE/G/ | (F/=B/)(c/E/) (G,/D/c/).B/ | c :| g/f/ eG/E/ | Df/d/ BD/B,/ | %253
 E(g/_a/) (b/a/)(g/f/) | (e/d/)(c/B/) (_A/G/)(F/E/) | B,B,B,B, | B,B,B,B, | B,b/g/ B_a/f/ | %258
 Bg/e/ Bf/d/ | B(G,/E/) (_A,/E/)(G,/E/) | (_A,/E/)(G,/E/) (A,/E/)(B,/E/) | %261
 (C/E/)(G,/E/) (_A,/E/)(G,/E/) | (_A,/E/)(G,/E/) (A,/E/)(B,/E/) | (C/D/)(E/C/) (D/E/)(F/D/) | %264
 (E/F/)(G/E/) BB, | E(e/d/) (c/B/)(_A/G/) | F(f/e/) (d/c/)(=B/=A/) | G(g/f/) (e/d/)(c/_B/) | %268
 _AF/G/ AF | Gc/d/ eC/E/ | Dd/e/ fD/F/ | Ee/f/ gE/G/ | (F/=B/)(c/E/) (G,/D/)(c/B/) | c2 z _d/c/ | %274
 (B/_A/)(G/F/) (=E/G/)(c/E/) | (F/_A/)(c/F/) (=E/G/)(c/E/) | F(_d/c/) (B/c/)(d/B/) | %277
 c(c/B/) (_A/c/)(A/c/) | (B/_d/)(B/_A/) (G/B/)(G/B/) | (_A/c/)(A/G/) (F/A/)(F/A/) | %280
 (G/B/)(G/F/) (=E/G/)(E/G/) | (F/_A/)(B/A/) (G/F/)(E/D/) | CF/B,/ CC | F(_a/g/) (f/e/)(d/c/) | %284
 (B/G/)(_A/F/) (G/E/)(F/D/) | Ee/f/ gg- | g g2 _a/e/ | f(f/e/) (d/c/)(=B/=A/) | %288
 (G/E/)(F/D/) (E/C/)(D/=B,/) | C(G/G,/) (F/G,/)(G/G,/) | (F/G,/)(G/G,/) (F/G,/)(E/G,/) | %291
 (D/G,/)(E/G,/) (F/G,/)(G/G,/) | (F/G,/)(G/G,/) (F/G,/)(E/G,/) | D(e/d/) (c/B/)(_A/G/) | %294
 F(f/e/) (d/c/)(=B/=A/) | G(g/f/) (e/d/)(c/_B/) | _AF/G/ AF | Gc/d/ eC/E/ | Dd/e/ fD/F/ | %299
 Ee/f/ gE/G/ | (F/=B/)(c/E/) (G,/D/c/).B/ ||[K:C] c2 z (c/B/) | (A/G/)(F/E/) (D/c/)(B/A/) | %303
 (G/F/)(E/D/) (C/B/)(A/G/) | (F/E/)(D/C/) B,C | G,e/f/ gE/G/ | Fd/e/ fD/F/ | Ec/d/ eC/E/ | %308
 D(f/e/){e} d(c/B/) | c4 |] %310
V:4
 c2 c2 c2 | c6 | c6 | C2 C2 C2 | C6 | C6 |: x6 | x6 | x6 | x6 | x6 | x6 | x6 | x6 | x6 | x6 | x6 | %17
 x6 | x6 | E2 E2 E2 | F2 F2 F2 | E2 E2 E2 | F2 x2 x x | x6 | x6 | x6 | x6 | x6 | x6 | x6 | x6 | %31
 x6 | x6 | x6 | x6 | x6 | [DA]3 x x2 | x6 | x6 | x6 | x6 | x6 | x6 | x6 | x6 | x6 | x6 | x6 | %48
 x2 G>A G x | x2 A>G A x | x2 G>A G x | x2 ^F>G F x | x6 | x6 | x6 | x6 | x6 | x6 | x6 :: x6 | x6 | %61
 x6 | x6 | x6 | x6 | x6 | x6 | x6 | x6 | x6 | x6 | x6 | x6 | x6 | x6 | x6 | x6 | x6 | x6 | x6 | %80
 x6 | x6 | x6 | x6 | x6 | x6 | x6 | x6 | x6 | x6 | x6 | x6 | x6 | x6 | x6 | x6 | x6 | %97
 =B,2 B,2 B,2 | B,2 B,2 B,2 | B,2 B,2 B,2 | C2 x2 x2 | x6 | x6 | x6 | x6 | x6 | x6 | x6 | x6 | x6 | %110
 x6 | E2 E2 E2 | F2 F2 F2 | E2 E2 E2 | F2 x2 x x | x6 | x6 | x6 | x6 | x6 | x6 | x6 | x6 | x6 | %124
 x6 | x6 | x6 | x6 | x6 | x6 | x6 | x6 | x6 | x2 x2 B>c | B2 x2 c>d | c2 x2 d>e | d2 x3 x | %137
 x2 x2 C>D | C2 x2 D>C | D2 x2 C>B, | C2 x2 B,>C | B,2 x2 x2 | x6 | x6 :|[M:4/4] x8 | x8 | x8 | %147
 x8 | x8 | x8 | x8 | x8 | x8 | x8 | x8 | x8 | x8 | x8 | x8 | x8 | x8 | x8 | x8 | x8 | x8 | x8 | %166
 x8 | x8 | x8 | x8 | x2 F2 E4 |][M:2/4] x3 | x4 | x4 | x4 | x4 | x4 | x4 | x4 | x :| x3 | x4 | x4 | %183
 x4 | x4 | x4 | x4 | x4 | x4 | x4 | x4 | x4 | x4 | x4 | x4 | x4 | x4 | x4 | x4 | x4 | x4 | x4 | %202
 x4 | x4 | x4 | x4 | x4 | x4 | x4 | x4 | x4 | x4 | x4 | x4 | x4 | x4 | x4 | x4 | x4 | x4 | x4 | %221
 x4 | x4 | x4 | x4 | x4 | x4 | x4 | x4 | x4 | x4 | x4 | x4 | x4 | x4 | x4 | x4 | x4 | x4 | x4 | %240
 x4 ||[K:Bb] x |: x3 | x4 | x4 | x4 | x4 | x4 | x4 | x4 | x :| x3 | x4 | x4 | x4 | x4 | x4 | x4 | %258
 x4 | x4 | x4 | x4 | x4 | x4 | x4 | x4 | x4 | x4 | x4 | x4 | x4 | x4 | x4 | x4 | x4 | x4 | x4 | %277
 x4 | x4 | x4 | x4 | x4 | x4 | x4 | x4 | x4 | x4 | x4 | x4 | x4 | x4 | x4 | x4 | x4 | x4 | x4 | %296
 x4 | x4 | x4 | x4 | x4 ||[K:C] x4 | x4 | x4 | x4 | x4 | x4 | x4 | x4 | x4 |] %310

